svg/fluentui-system-icons/ic_fluent_music_note_off_1_20_filled.svg

<svg width="20" height="20" viewBox="0 0 20 20" fill="none" xmlns="http://www.w3.org/2000/svg">
<path d="M2.85355 2.14645C2.65829 1.95118 2.34171 1.95118 2.14645 2.14645C1.95118 2.34171 1.95118 2.65829 2.14645 2.85355L9.5 10.2071V12.4048C8.91605 11.8444 8.12325 11.5 7.25 11.5C5.45507 11.5 4 12.9551 4 14.75C4 16.5449 5.45507 18 7.25 18C9.04493 18 10.5 16.5449 10.5 14.75C10.5 14.6897 10.4984 14.6297 10.4951 14.5702C10.4983 14.5473 10.5 14.5238 10.5 14.5V11.2071L17.1464 17.8536C17.3417 18.0488 17.6583 18.0488 17.8536 17.8536C18.0488 17.6583 18.0488 17.3417 17.8536 17.1464L2.85355 2.14645ZM10.5 7.17698V8.37866L9.5 7.37866V2.5C9.5 2.34133 9.57531 2.19208 9.70295 2.09781C9.83058 2.00354 9.99539 1.97545 10.147 2.02211L15.2352 3.58771C16.2842 3.91047 17 4.87964 17 5.97715V8.5C17 8.65868 16.9247 8.80793 16.7971 8.9022C16.6694 8.99647 16.5046 9.02456 16.353 8.97789L10.5 7.17698Z" fill="#212121"/>
</svg>

<svg xmlns="http://www.w3.org/2000/svg" width="20" height="20"><path d="M2.854 2.146a.5.5 0 1 0-.708.708L9.5 10.207v2.198a3.25 3.25 0 1 0 .995 2.165.508.508 0 0 0 .005-.07v-3.293l6.646 6.647a.5.5 0 0 0 .708-.708l-15-15ZM10.5 7.177v1.202l-1-1V2.5a.5.5 0 0 1 .647-.478l5.088 1.566A2.5 2.5 0 0 1 17 5.978V8.5a.5.5 0 0 1-.647.478L10.5 7.177Z"/></svg>
